src/assets/icons/weeks,simple,29.svg

<svg width="48" height="48" viewBox="0 0 48 48" fill="none" xmlns="http://www.w3.org/2000/svg">
<rect opacity="0.2" x="5" y="5" width="38" height="38" rx="4" fill="black"/>
<path d="M5 13C5 9.22876 5 7.34315 6.17157 6.17157C7.34315 5 9.22876 5 13 5H35C38.7712 5 40.6569 5 41.8284 6.17157C43 7.34315 43 9.22876 43 13V15H5V13Z" fill="black"/>
<path d="M9.9343 38H22.3775V34.983H15.0479V34.8636L17.5962 32.3665C21.1843 29.0938 22.1474 27.4574 22.1474 25.4716C22.1474 22.446 19.6758 20.3068 15.9343 20.3068C12.2695 20.3068 9.75533 22.4972 9.76385 25.9233H13.2667C13.2582 24.2528 14.315 23.2301 15.9087 23.2301C17.4428 23.2301 18.5849 24.1847 18.5849 25.7188C18.5849 27.108 17.7326 28.0625 16.1474 29.5881L9.9343 35.3409V38ZM31.3668 20.3068C27.4634 20.2898 24.8299 22.8466 24.8469 26.358C24.8555 29.6136 27.114 31.9744 30.2077 31.9744C32.1254 31.9744 33.8299 31.0455 34.6055 29.5114H34.7248C34.7163 32.9716 33.5146 35.0767 31.239 35.0767C29.9009 35.0767 28.9379 34.3438 28.6566 33.0739H25.0174C25.3583 36.0142 27.7447 38.2386 31.239 38.2386C35.56 38.2386 38.3469 34.7443 38.3384 28.821C38.3299 22.4972 34.9549 20.3239 31.3668 20.3068ZM31.3924 23.2045C33.0884 23.2045 34.3413 24.5852 34.3583 26.2472C34.3668 27.9176 33.0458 29.2983 31.3583 29.2983C29.6538 29.2983 28.435 27.9688 28.4265 26.2557C28.4094 24.5511 29.6793 23.2045 31.3924 23.2045Z" fill="black"/>
</svg>

<svg xmlns="http://www.w3.org/2000/svg" width="48" height="48" fill="none" viewBox="0 0 48 48">
  <rect width="38" height="38" x="5" y="5" fill="#000" opacity=".2" rx="4"/>
  <path fill="#000" d="M5 13c0-3.771 0-5.657 1.172-6.828C7.343 5 9.229 5 13 5h22c3.771 0 5.657 0 6.828 1.172C43 7.343 43 9.229 43 13v2H5v-2zM9.934 38h12.444v-3.017h-7.33v-.12l2.548-2.496c3.588-3.273 4.551-4.91 4.551-6.895 0-3.026-2.471-5.165-6.213-5.165-3.664 0-6.179 2.19-6.17 5.616h3.503c-.009-1.67 1.048-2.693 2.642-2.693 1.534 0 2.676.955 2.676 2.489 0 1.389-.852 2.343-2.438 3.87L9.934 35.34V38zm21.433-17.693c-3.904-.017-6.537 2.54-6.52 6.051.008 3.256 2.267 5.616 5.36 5.616 1.918 0 3.623-.928 4.398-2.463h.12c-.009 3.46-1.21 5.566-3.486 5.566-1.338 0-2.301-.733-2.582-2.003h-3.64c.341 2.94 2.728 5.165 6.222 5.165 4.321 0 7.108-3.495 7.1-9.418-.01-6.324-3.384-8.497-6.972-8.514zm.025 2.898c1.696 0 2.95 1.38 2.966 3.042.009 1.67-1.312 3.051-3 3.051-1.704 0-2.923-1.33-2.931-3.042-.018-1.705 1.252-3.052 2.965-3.052z"/>
</svg>
